X:1
T:Vaye’ethayu, LMD
T:Vaye’ethayu, LMD
T:Leon M. Kramer (1866-1943)
T:Public Domain Courtesy of the Cyber Hymnal™
C:Leon M. Kramer (1866-1943)
Z:Public Domain
Z:Courtesy of the Cyber Hymnal™
%%score ( 1 2 ) ( 3 4 )
L:1/8
M:3/4
K:G
V:1 treble 
V:2 treble 
V:3 bass 
V:4 bass 
V:1
 D>D | [DG]4 [DG]2 | ([GB]2 [FA]2) G2 | (c4 B2) | [Ge]4 [Fd]2 | G4 G2 | [EB]4 [EA]2 | ([D-G]6 | %8
 [DF]4) D[DF] | (A2 B2) [E^c]2 | [Dd]4 [FB]2 | (e4 d2) | [E^c]4 [Ec]2 | (d2 ^c2) [GB]2 | %14
 (A2 G2) [DF]2 | E6 | D4 DD | [CE]4 E2 | [EF]4 [^DF]2 | [EG]6 | E4 [B,F]2 | [EG]4 [EG]2 | %22
 (A2 G2) [EA]2 | [^DB]6- | [DB]4 [^DF][DF] | [EG]4 [EG]2 | [E^G]4 [EG]2 | (A4 B2) | [Ec]4 [DA]2 | %29
 ([DB]2 [B,G]2) [GB]2 | [Fd]4 [DF]2 | [DG]6- | [DG]4 |] %33
V:2
 D>D | x6 | x4 G2 | G6 | x6 | G4 G2 | x6 | x6 | x4 D x | E4 x2 | x6 | E6 | x6 | A4 x2 | E4 x2 | %15
 D4 C2 | D4 DD | x4 E2 | x6 | x6 | E4 x2 | x6 | E4 x2 | x6 | x6 | x6 | x6 | E6 | x6 | x6 | x6 | %31
 x6 | x4 |] %33
V:3
 [D,D]>[D,D] | [G,B,]4 [G,B,]2 | (D2 C2) [G,B,]2 | ([E,C]4 [D,D]2) | [^C,A,]4 [=C,A,]2 | %5
 [B,,D]4 [B,,D]2 | [C,D]4 [C,C]2 | B,4 _B,2 | [D,A,]4 [D,F,][D,A,] | [^C,A,]4 [A,,G,]2 | %10
 [B,,F,]4 [B,D]2 | ([^G,B,]2 [F,A,]2 [G,B,]2) | [A,^C]4 A,2 | [F,A,]4 [G,D]2 | [^C,E]4 [D,A,]2 | %15
 ([G,,B,]4 [A,,G,]2 | [D,F,]4) [B,,G,][B,,G,] | [C,G,]4 [C,G,]2 | [B,,B,]4 [B,,B,]2 | [E,B,]6 | %20
 [E,G,]4 [^D,B,]2 | [E,B,]4 [E,B,]2 | [C,E,]4 [C,E,]2 | [B,,F,]6- | [B,,F,]4 [B,,B,][B,,B,] | %25
 [E,B,]4 [E,B,]2 | [D,B,]4 [D,B,]2 | ([C,D]4 [B,,^G,]2) | [A,,A,]4 [D,F,]2 | [G,,G,]4 [E,G,]2 | %30
 (A,2 D2) [D,C]2 | [G,B,]6- | [G,B,]4 |] %33
V:4
 x2 | x6 | G,4 x2 | x6 | x6 | x6 | x6 | D,6- | x6 | x6 | x6 | x6 | x4 A,2 | x6 | x6 | x6 | x6 | %17
 x6 | x6 | x6 | x6 | x6 | x6 | x6 | x6 | x6 | x6 | x6 | x6 | x6 | D,4 x2 | x6 | x4 |] %33

